assets/images/allImg.svg

<svg fill="none" height="25" viewBox="0 0 24 25" width="24" xmlns="http://www.w3.org/2000/svg"><g fill="#000"><path clip-rule="evenodd" d="m0 3.5c0-.59674.237053-1.16903.65901-1.59099.42196-.42196.99425-.65901 1.59099-.65901h16.5c.5967 0 1.169.23705 1.591.65901.4219.42196.659.99425.659 1.59099v18c0 .5967-.2371 1.169-.659 1.591-.422.4219-.9943.659-1.591.659h-16.5c-.59674 0-1.16903-.2371-1.59099-.659-.421957-.422-.65901-.9943-.65901-1.591zm2.25-.75c-.19891 0-.38968.07902-.53033.21967s-.21967.33142-.21967.53033v18c0 .1989.07902.3897.21967.5303.14065.1407.33142.2197.53033.2197h16.5c.1989 0 .3897-.079.5303-.2197.1407-.1406.2197-.3314.2197-.5303v-18c0-.19891-.079-.38968-.2197-.53033-.1406-.14065-.3314-.21967-.5303-.21967z" fill-rule="evenodd"/><path clip-rule="evenodd" d="m23.25 5c.1989 0 .3897.07902.5303.21967.1407.14065.2197.33142.2197.53033v15.75c0 .5967-.2371 1.169-.659 1.591-.422.4219-.9943.659-1.591.659h-4.5v-1.5h4.5c.1989 0 .3897-.079.5303-.2197.1407-.1406.2197-.3314.2197-.5303v-15.75c0-.19891.079-.38968.2197-.53033.1406-.14065.3314-.21967.5303-.21967z" fill-rule="evenodd"/><path d="m3 5h15v3h-15zm0 4.5h6v4.5h-6zm0 6h6v1.5h-6zm0 3h6v1.5h-6zm7.5-9h3v1.5h-3zm4.5 0h3v1.5h-3zm-4.5 3h3v1.5h-3zm4.5 0h3v1.5h-3zm-4.5 3h3v1.5h-3zm4.5 0h3v1.5h-3zm-4.5 3h3v1.5h-3zm4.5 0h3v1.5h-3z"/></g></svg>

<svg width="24" height="25" viewBox="0 0 24 25" fill="none" xmlns="http://www.w3.org/2000/svg">
<path fill-rule="evenodd" clip-rule="evenodd" d="M0 3.5C0 2.90326 0.237053 2.33097 0.65901 1.90901C1.08097 1.48705 1.65326 1.25 2.25 1.25H18.75C19.3467 1.25 19.919 1.48705 20.341 1.90901C20.7629 2.33097 21 2.90326 21 3.5V21.5C21 22.0967 20.7629 22.669 20.341 23.091C19.919 23.5129 19.3467 23.75 18.75 23.75H2.25C1.65326 23.75 1.08097 23.5129 0.65901 23.091C0.237053 22.669 0 22.0967 0 21.5L0 3.5ZM2.25 2.75C2.05109 2.75 1.86032 2.82902 1.71967 2.96967C1.57902 3.11032 1.5 3.30109 1.5 3.5V21.5C1.5 21.6989 1.57902 21.8897 1.71967 22.0303C1.86032 22.171 2.05109 22.25 2.25 22.25H18.75C18.9489 22.25 19.1397 22.171 19.2803 22.0303C19.421 21.8897 19.5 21.6989 19.5 21.5V3.5C19.5 3.30109 19.421 3.11032 19.2803 2.96967C19.1397 2.82902 18.9489 2.75 18.75 2.75H2.25Z" fill="black"/>
<path fill-rule="evenodd" clip-rule="evenodd" d="M23.25 5C23.4489 5 23.6397 5.07902 23.7803 5.21967C23.921 5.36032 24 5.55109 24 5.75V21.5C24 22.0967 23.7629 22.669 23.341 23.091C22.919 23.5129 22.3467 23.75 21.75 23.75H17.25V22.25H21.75C21.9489 22.25 22.1397 22.171 22.2803 22.0303C22.421 21.8897 22.5 21.6989 22.5 21.5V5.75C22.5 5.55109 22.579 5.36032 22.7197 5.21967C22.8603 5.07902 23.0511 5 23.25 5Z" fill="black"/>
<path d="M3 5H18V8H3V5ZM3 9.5H9V14H3V9.5ZM3 15.5H9V17H3V15.5ZM3 18.5H9V20H3V18.5ZM10.5 9.5H13.5V11H10.5V9.5ZM15 9.5H18V11H15V9.5ZM10.5 12.5H13.5V14H10.5V12.5ZM15 12.5H18V14H15V12.5ZM10.5 15.5H13.5V17H10.5V15.5ZM15 15.5H18V17H15V15.5ZM10.5 18.5H13.5V20H10.5V18.5ZM15 18.5H18V20H15V18.5Z" fill="black"/>
</svg>
